X:11
T:No.93 Kitty Sheain's
C:reel
L:1/8
M:4/4
K:E
B2BB AFF2|GEEE BcBA|
GABG AFGA|B2AF GEE2|
GABG AFFF|GEEE BcBA|
GABG AFGA|B2AF GEE2||
defd e2dB|BAFA B2Bc|
defd egfe|dBAF GEE2|
defd e2dB|BAFA B2Bc|
dcde (3fga fe|dBAF E2GA||
